X: 98
T: No_193_Friendly_Song_(b).krn
N: Derived from No_193_Friendly_Song_(b).krn
%%abc-version 2.0
%%abcx-abcm2ps-target-version 5.9.1 (29 Sep 2008)
%%abc-creator hum2abc beta
%%abcx-conversion-date 2019/03/15 08:29:13
%%humdrum-veritas 2283121154
%%humdrum-veritas-data 982021166
%%linebreak <none>
%%barnumbers 0
L: 1/8
M: 2/4
K: G clef=bass
[K:clef=bass][M:2/4]D/D/D B,3/B,/ | 
D4 ||  
[M:3/4]B,/D3/ B,3/A,/ G,3/G,/ ||  
[M:2/4]B,2B,2 | 
A,2{/B,} A,3/A,/ | 
G,3/G,/G,2- | 
G,4 | 
G,2E,2 ||  
[M:3/4]G,6 ||  
[M:2/4](3B,B,B, G,3/G,/ | 
B,/G,3/-G,2 | 
E,3/G,/ E,E, | 
D,3/D,/D,2- | 
D,2B,,2 | 
B,,B,,G,,2 | 
B,,2B,,2 | 
A,,3/B,,/ A,,A,, | 
G,,2G,,2- | 
G,,2G,,2 |]  



